X:1
T:Spitta, 76.76 D
T:Spitta, 76.76 D
T:Hart Pease Danks (1834-1903)
T:Public Domain Courtesy of the Cyber Hymnal™
C:Hart Pease Danks (1834-1903)
Z:Public Domain
Z:Courtesy of the Cyber Hymnal™
%%score ( 1 2 ) ( 3 4 )
L:1/8
Q:1/4=110
M:4/4
K:F
V:1 treble 
V:2 treble 
V:3 bass 
V:4 bass 
V:1
 C2 | [CF]3 C [CF]2 [FA]2 | [Ac]4 [Ac]2 [Bd]2 | [Ac]2 [FA]2 [EG]3 [EA] | F6 [Fc]2 | %5
 [Fd]2 [Fd]2 [Ff]2 [Fd]2 | [Fc]4 [FA]2 [^DA]2 | [EG]2 [Ec]2 [Fc]2 [F=B]2 | [Ec]6 [Ec]2 | %9
 [Fc]2 [FA]2 F2 ([EG][FA]) | [GB]4 [FA]2 F2 | [Fd]2 [Fc]2 B2 [FA]2 | [EG]6 [EG]2 | %13
 [FA]2 [FA]2 [FB]2 [Fc]2 | [Fd]4 [Fd]2 [Fd]2 | [Fc]2 F2 [EG]3 [EA] | F6 |] %17
V:2
 C2 | x3 C x4 | x8 | x8 | F6 x2 | x8 | x8 | x8 | x8 | x4 F2 x2 | x6 F2 | x4 (DE) x2 | x8 | x8 | %14
 x8 | x2 F2 x4 | F6 |] %17
V:3
 [F,A,]2 | [F,A,]3 [F,A,] [F,A,]2 [F,C]2 | [F,F]4 [F,F]2 [B,F]2 | [CF]2 C2 [C,B,]3 [C,B,] | %4
 [F,A,]6 [F,A,]2 | [B,,B,]2 [B,,B,]2 [B,,D]2 [B,,B,]2 | [F,A,]4 [F,C]2 [^F,C]2 | %7
 [G,C]2 [G,C]2 [G,D]2 [G,D]2 | [C,C]6 [C,B,]2 | [F,A,]2 [F,C]2 [A,C]2 C2 | [E,C]4 [F,C]2 [A,C]2 | %11
 B,2 [A,C]2 (DC) [F,C]2 | [C,C]6 [C,C]2 | [F,C]2 [_E,C]2 [D,B,]2 [C,A,]2 | %14
 [B,,B,]4 [B,,G,]2 [=B,,^G,]2 | [C,A,]2 [C,A,]2 [C,B,]3 [C,B,] | [F,A,]6 |] %17
V:4
 x2 | x8 | x8 | x2 C2 x4 | x8 | x8 | x8 | x8 | x8 | x6 (G,F,) | x8 | B,2 G,2 x4 | x8 | x8 | x8 | %15
 x8 | x6 |] %17

